X:100
T: Bittersweet
C: BB
R: reel
Q: 1/8=350
M: 4/4
L: 1/8
K: D
z4 z2 A2|"D"D2 FA "Bm"Bdef|"D"afef "Bm"dBBA|"G"BGBd "D"AFAd|"C"=cBAG E=CEG|
"D"D2 FA "Bm"Bdef|"A"afge "D"fdfa|"G"bggb "D"affd|"A"Acec "D"d2 :|
z4 z2 AB|"C"=cG (3GFG "D"dA (3AGA|"C"e=ceg "Am"afge|"D"dAAB "C"=cA G2|"D"Afed"C"=c2 AB|
"Am7"=cG (3GFG "D"dA (3AGA|"Am"afge "D"fd (3dcd|"C"=cBAG E=CEG| "A"AFGE "D"D2 :|
%%%%%%%%%%%%%%%%%%%%%%%%%%%%%%%%%%%%%%%%%%%
